X: 08111
T: TEA WITH DEBRA
C: Bob McQuillen 3 Sept 90
B: Bob's Note Book 8 #111
%R: jig
Z: 2021 John Chambers <jc:trillian.mit.edu>
M: 6/8
L: 1/8
K: D
BA \
| FEF DB,D | A,B,D DFE | DFA Bdf | edB AFE |\
| FEF DB,D | A,B,D EFE | DFB AFE | FDD D :|
|: BA \
| FAA BAB | dfe dBd | AFA Bdf | edB BdB |\
| AFA BAB | dfd edf | aba fdf | edd d :|
%%begintext align
%% This little ditty is to celebrate the wonderful
%% cup of MINT TEA I so thoroughly enjoyed
%% at Debra & Penn's house after the dance
%% at the Masonic Temple in Spokane in 1989.
%% Let me tell you - Debra's a real good tea-maker!!
%%endtext

%%sep 1 1 500

%%sep 1 1 500

